packages/ui-icons/svg/Solid/comment.svg

<svg viewBox="0 0 1920 1920" version="1.1" xmlns="http://www.w3.org/2000/svg">
    <path d="M1662.17776,0 L1662.17776,1359.96362 L1013.47511,1359.96362 L453.321206,1920.11752 L453.321206,1359.96362 L0,1359.96362 L0,0 L1662.17776,0 Z M906.79352,755.550454 L453.321206,755.550454 L453.321206,873.079027 L906.79352,873.079027 L906.79352,755.550454 Z M1208.85655,453.18521 L453.321206,453.18521 L453.321206,570.713782 L1208.85655,570.713782 L1208.85655,453.18521 Z" stroke="none" stroke-width="1" fill-rule="evenodd"/>
</svg>

<svg viewBox="0 0 1920 1920" xmlns="http://www.w3.org/2000/svg">
    <path d="M1662.178 0v1359.964h-648.703l-560.154 560.154v-560.154H0V0h1662.178ZM906.794 755.55H453.32v117.53h453.473V755.55Zm302.063-302.365H453.32v117.529h755.536V453.185Z" fill-rule="evenodd"/>
</svg>
